img/logo-mobile.svg

<svg width="768" height="73" viewBox="0 0 768 73" fill="none" xmlns="http://www.w3.org/2000/svg">
<path d="M57.1562 66.2812C57.1562 67.8438 56.5938 69.1875 55.4688 70.3125C54.3438 71.4375 53 72 51.4375 72H50.875C49.3125 72 47.9688 71.4375 46.8438 70.3125C45.7188 69.1875 45.1562 67.8438 45.1562 66.2812V41.4375C45.1562 39.875 44.5938 38.5312 43.4688 37.4062C42.3438 36.2812 41 35.7188 39.4375 35.7188H18.0625C16.5 35.7188 15.1562 36.2812 14.0312 37.4062C12.9062 38.5312 12.3438 39.875 12.3438 41.4375V66.2812C12.3438 67.8438 11.7812 69.1875 10.6562 70.3125C9.53125 71.4375 8.1875 72 6.625 72H6.0625C4.5 72 3.15625 71.4375 2.03125 70.3125C0.90625 69.1875 0.34375 67.8438 0.34375 66.2812V7.40625C0.34375 5.84375 0.90625 4.5 2.03125 3.375C3.15625 2.25 4.5 1.6875 6.0625 1.6875H6.625C8.1875 1.6875 9.53125 2.25 10.6562 3.375C11.7812 4.5 12.3438 5.84375 12.3438 7.40625V28.5C12.3438 30.0625 12.9062 31.4062 14.0312 32.5312C15.1562 33.6562 16.5 34.2188 18.0625 34.2188H39.4375C41 34.2188 42.3438 33.6562 43.4688 32.5312C44.5938 31.4062 45.1562 30.0625 45.1562 28.5V7.40625C45.1562 5.84375 45.7188 4.5 46.8438 3.375C47.9688 2.25 49.3125 1.6875 50.875 1.6875H51.4375C53 1.6875 54.3438 2.25 55.4688 3.375C56.5938 4.5 57.1562 5.84375 57.1562 7.40625V66.2812ZM121.844 2.53125C121.844 1.96875 122.156 1.6875 122.781 1.6875C123.344 1.6875 123.625 1.96875 123.625 2.53125V44.4375C123.625 53.875 121.5 60.9688 117.25 65.7188C113 70.4688 106.625 72.8438 98.125 72.8438C81.125 72.8438 72.625 63.5312 72.625 44.9062V7.40625C72.625 5.84375 73.1875 4.5 74.3125 3.375C75.4375 2.25 76.7812 1.6875 78.3438 1.6875H78.9062C80.4688 1.6875 81.8125 2.25 82.9375 3.375C84.0625 4.5 84.625 5.84375 84.625 7.40625V42.75C84.625 52.1875 85.75 59.2812 88 64.0312C90.25 68.7812 93.625 71.1562 98.125 71.1562C113.938 71.1562 121.844 62.125 121.844 44.0625V2.53125ZM143.594 71.0625C143.594 71.6875 143.312 72 142.75 72C142.125 72 141.812 71.6875 141.812 71.0625V7.40625C141.812 5.84375 142.375 4.5 143.5 3.375C144.625 2.25 145.969 1.6875 147.531 1.6875H151.375C152.375 1.6875 153.406 2.0625 154.469 2.8125C155.594 3.5 156.344 4.3125 156.719 5.25L172.938 43.7812C173.5 45.1562 174.406 46.125 175.656 46.6875C176.906 47.1875 178.125 47.3125 179.312 47.0625C180.562 46.8125 181.656 46.2188 182.594 45.2812C183.531 44.2812 184 43.0312 184 41.5312V2.53125C184 1.96875 184.312 1.6875 184.938 1.6875C185.5 1.6875 185.781 1.96875 185.781 2.53125V66.2812C185.781 67.8438 185.219 69.1875 184.094 70.3125C182.969 71.4375 181.625 72 180.062 72H175.281C174.281 72 173.219 71.6562 172.094 70.9688C171.031 70.2188 170.312 69.375 169.938 68.4375L154.656 32.1562C154.094 30.7812 153.188 29.8438 151.938 29.3438C150.688 28.7812 149.438 28.625 148.188 28.875C147 29.125 145.938 29.75 145 30.75C144.062 31.6875 143.594 32.9062 143.594 34.4062V71.0625ZM236.875 34.9688C236.375 34.9688 236.125 34.7188 236.125 34.2188C236.125 33.7188 236.375 33.4688 236.875 33.4688H253.75C255.312 33.4688 256.656 34.0312 257.781 35.1562C258.906 36.2812 259.469 37.625 259.469 39.1875V59.5312C259.469 60.1562 259.188 61 258.625 62.0625C258.125 63.0625 257.625 63.75 257.125 64.125C253.625 66.8125 250 68.9375 246.25 70.5C242.562 72.0625 239.031 72.8438 235.656 72.8438C230.094 72.8438 225.031 72 220.469 70.3125C215.906 68.5625 212 66.125 208.75 63C205.562 59.8125 203.062 56 201.25 51.5625C199.5 47.125 198.625 42.2188 198.625 36.8438C198.625 31.4688 199.5 26.5625 201.25 22.125C203.062 17.6875 205.562 13.9062 208.75 10.7812C212 7.59375 215.906 5.15625 220.469 3.46875C225.031 1.71875 230.094 0.84375 235.656 0.84375C237.344 0.84375 239.094 1.25 240.906 2.0625C242.781 2.8125 244.594 3.875 246.344 5.25C248.156 6.625 249.906 8.3125 251.594 10.3125C253.344 12.3125 254.938 14.5 256.375 16.875C256.438 17 256.5 17.1875 256.562 17.4375C256.625 17.6875 256.625 17.8438 256.562 17.9062L256.188 18.1875L255.812 18.4688C255.688 18.5312 255.531 18.5 255.344 18.375C255.156 18.25 255.031 18.125 254.969 18C253.594 15.625 252.094 13.5 250.469 11.625C248.844 9.6875 247.188 8.03125 245.5 6.65625C243.812 5.28125 242.125 4.21875 240.438 3.46875C238.75 2.71875 237.156 2.34375 235.656 2.34375C232.031 2.34375 228.719 3.1875 225.719 4.875C222.781 6.5 220.25 8.8125 218.125 11.8125C216 14.8125 214.344 18.4375 213.156 22.6875C212.031 26.9375 211.469 31.6562 211.469 36.8438C211.469 42.0312 212.031 46.75 213.156 51C214.344 55.25 216 58.875 218.125 61.875C220.25 64.875 222.781 67.2188 225.719 68.9062C228.719 70.5312 232.031 71.3438 235.656 71.3438C238.719 71.3438 241.969 70.625 245.406 69.1875C248.844 67.6875 252.219 65.6875 255.531 63.1875C256.031 62.75 256.5 62.0625 256.938 61.125C257.438 60.125 257.688 59.3125 257.688 58.6875V40.6875C257.688 39.125 257.125 37.7812 256 36.6562C254.875 35.5312 253.531 34.9688 251.969 34.9688H236.875ZM319 67.3125C319.188 67.625 319.344 67.9375 319.469 68.25C319.656 68.5 319.812 68.7812 319.938 69.0938C320.125 69.4062 320.312 69.7188 320.5 70.0312L321.062 70.9688C321.188 71.2188 321.188 71.4688 321.062 71.7188C320.938 71.9062 320.75 72 320.5 72H311.219C310.406 72 309.469 71.6875 308.406 71.0625C307.344 70.4375 306.594 69.7812 306.156 69.0938L293.219 46.125C292.406 44.6875 292.375 43.3438 293.125 42.0938C293.875 40.7812 295.094 40.125 296.781 40.125H300.25C301.062 40.125 302 40.4375 303.062 41.0625C304.125 41.6875 304.875 42.3438 305.312 43.0312L319 67.3125ZM283.844 66.2812C283.844 67.8438 283.281 69.1875 282.156 70.3125C281.031 71.4375 279.688 72 278.125 72H277.562C276 72 274.656 71.4375 273.531 70.3125C272.406 69.1875 271.844 67.8438 271.844 66.2812V7.40625C271.844 5.84375 272.406 4.5 273.531 3.375C274.656 2.25 276 1.6875 277.562 1.6875H294.25C310.688 1.6875 318.906 8.71875 318.906 22.7812C318.906 34.2188 310.688 39.9375 294.25 39.9375H289.094C287.594 39.9375 286.344 40.4375 285.344 41.4375C284.344 42.4375 283.844 43.6562 283.844 45.0938V66.2812ZM283.844 33.2812C283.844 34.7188 284.344 35.9688 285.344 37.0312C286.406 38.0312 287.656 38.5312 289.094 38.5312H294.344C302.719 38.5312 306.906 33.2812 306.906 22.7812C306.906 9.65625 302.656 3.09375 294.156 3.09375H289C287.562 3.09375 286.344 3.59375 285.344 4.59375C284.344 5.59375 283.844 6.8125 283.844 8.25V33.2812ZM335.688 1.6875C336 1.6875 336.312 1.8125 336.625 2.0625C337 2.25 337.25 2.46875 337.375 2.71875C337.625 3.15625 337.875 3.59375 338.125 4.03125C338.375 4.46875 338.594 4.875 338.781 5.25C339.031 5.6875 339.25 6.09375 339.438 6.46875L355.75 36C356 36.4375 356.406 36.6562 356.969 36.6562C357.469 36.5938 357.844 36.3438 358.094 35.9062L374.875 5.15625C375.125 4.71875 375.469 4.0625 375.906 3.1875C376.406 2.3125 376.688 1.8125 376.75 1.6875C376.875 1.5 377 1.46875 377.125 1.59375C377.25 1.65625 377.438 1.6875 377.688 1.6875C378.25 1.6875 378.375 1.9375 378.062 2.4375L359.688 35.9062C359.562 36.0938 359.406 36.5625 359.219 37.3125C359.031 38.0625 358.938 38.5312 358.938 38.7188V66.2812C358.938 67.8438 358.375 69.1875 357.25 70.3125C356.125 71.4375 354.781 72 353.219 72H352.656C351.094 72 349.75 71.4375 348.625 70.3125C347.5 69.1875 346.938 67.8438 346.938 66.2812V42.5625C346.938 42.375 346.844 41.9062 346.656 41.1562C346.469 40.4062 346.312 39.9375 346.188 39.75L327.438 6.375C327.312 6.125 327.188 5.875 327.062 5.625C326.875 5.375 326.688 5.09375 326.5 4.78125C326.375 4.46875 326.219 4.15625 326.031 3.84375L325.469 2.71875C325.281 2.46875 325.25 2.25 325.375 2.0625C325.5 1.8125 325.719 1.6875 326.031 1.6875H335.688ZM425.125 66.2812C425.125 67.8438 424.562 69.1875 423.438 70.3125C422.312 71.4375 420.969 72 419.406 72H418.844C417.281 72 415.938 71.4375 414.812 70.3125C413.688 69.1875 413.125 67.8438 413.125 66.2812V7.40625C413.125 5.84375 413.688 4.5 414.812 3.375C415.938 2.25 417.281 1.6875 418.844 1.6875H435.531C451.969 1.6875 460.188 8.71875 460.188 22.7812C460.188 35.4688 451.969 41.8125 435.531 41.8125H430.375C428.875 41.8125 427.625 42.3125 426.625 43.3125C425.625 44.3125 425.125 45.5312 425.125 46.9688V66.2812ZM425.125 35.1562C425.125 36.5938 425.625 37.8438 426.625 38.9062C427.688 39.9062 428.938 40.4062 430.375 40.4062H435.625C444 40.4062 448.188 34.5312 448.188 22.7812C448.188 9.65625 443.938 3.09375 435.438 3.09375H430.281C428.844 3.09375 427.625 3.59375 426.625 4.59375C425.625 5.59375 425.125 6.8125 425.125 8.25V35.1562ZM518.031 70.5C518.531 70.5 518.781 70.75 518.781 71.25C518.781 71.75 518.531 72 518.031 72H477.344C475.781 72 474.438 71.4375 473.312 70.3125C472.188 69.1875 471.625 67.8438 471.625 66.2812V7.40625C471.625 5.84375 472.188 4.5 473.312 3.375C474.438 2.25 475.781 1.6875 477.344 1.6875H516.625C517.125 1.6875 517.375 1.9375 517.375 2.4375C517.375 2.9375 517.125 3.1875 516.625 3.1875H489.344C487.781 3.1875 486.438 3.75 485.312 4.875C484.188 6 483.625 7.34375 483.625 8.90625V29.3438C483.625 30.9062 484.188 32.25 485.312 33.375C486.438 34.5 487.781 35.0625 489.344 35.0625H514.844C515.281 35.0625 515.5 35.2812 515.5 35.7188C515.5 36.1562 515.281 36.375 514.844 36.375H489.344C487.781 36.375 486.438 36.9375 485.312 38.0625C484.188 39.1875 483.625 40.5312 483.625 42.0938V64.7812C483.625 66.3438 484.188 67.6875 485.312 68.8125C486.438 69.9375 487.781 70.5 489.344 70.5H518.031ZM541.656 36.8438C541.656 42.0312 542.125 46.75 543.062 51C544.062 55.25 545.438 58.875 547.188 61.875C548.938 64.875 551.031 67.2188 553.469 68.9062C555.969 70.5312 558.719 71.3438 561.719 71.3438C564.719 71.3438 567.438 70.5312 569.875 68.9062C572.375 67.2188 574.5 64.875 576.25 61.875C578 58.875 579.344 55.25 580.281 51C581.281 46.75 581.781 42.0312 581.781 36.8438C581.781 31.9062 581.25 27.3438 580.188 23.1562C579.188 18.9688 577.781 15.3438 575.969 12.2812C574.219 9.15625 572.125 6.71875 569.688 4.96875C567.25 3.21875 564.594 2.34375 561.719 2.34375C558.844 2.34375 556.188 3.21875 553.75 4.96875C551.312 6.71875 549.188 9.15625 547.375 12.2812C545.625 15.3438 544.219 18.9688 543.156 23.1562C542.156 27.3438 541.656 31.9062 541.656 36.8438ZM528.812 36.8438C528.812 31.7188 529.625 26.9688 531.25 22.5938C532.938 18.1562 535.25 14.3438 538.188 11.1562C541.188 7.90625 544.688 5.375 548.688 3.5625C552.688 1.75 557.031 0.84375 561.719 0.84375C566.406 0.84375 570.75 1.75 574.75 3.5625C578.75 5.375 582.219 7.90625 585.156 11.1562C588.156 14.3438 590.469 18.1562 592.094 22.5938C593.781 26.9688 594.625 31.7188 594.625 36.8438C594.625 42.2188 593.844 47.125 592.281 51.5625C590.719 56 588.5 59.8125 585.625 63C582.75 66.125 579.281 68.5625 575.219 70.3125C571.156 72 566.656 72.8438 561.719 72.8438C556.781 72.8438 552.281 72 548.219 70.3125C544.156 68.5625 540.688 66.125 537.812 63C534.938 59.8125 532.719 56 531.156 51.5625C529.594 47.125 528.812 42.2188 528.812 36.8438ZM619.938 66.2812C619.938 67.8438 619.375 69.1875 618.25 70.3125C617.125 71.4375 615.781 72 614.219 72H613.656C612.094 72 610.75 71.4375 609.625 70.3125C608.5 69.1875 607.938 67.8438 607.938 66.2812V7.40625C607.938 5.84375 608.5 4.5 609.625 3.375C610.75 2.25 612.094 1.6875 613.656 1.6875H630.344C646.781 1.6875 655 8.71875 655 22.7812C655 35.4688 646.781 41.8125 630.344 41.8125H625.188C623.688 41.8125 622.438 42.3125 621.438 43.3125C620.438 44.3125 619.938 45.5312 619.938 46.9688V66.2812ZM619.938 35.1562C619.938 36.5938 620.438 37.8438 621.438 38.9062C622.5 39.9062 623.75 40.4062 625.188 40.4062H630.438C638.812 40.4062 643 34.5312 643 22.7812C643 9.65625 638.75 3.09375 630.25 3.09375H625.094C623.656 3.09375 622.438 3.59375 621.438 4.59375C620.438 5.59375 619.938 6.8125 619.938 8.25V35.1562ZM708.25 70.5C708.75 70.5 709 70.75 709 71.25C709 71.75 708.75 72 708.25 72H672.25C670.688 72 669.344 71.4375 668.219 70.3125C667.094 69.1875 666.531 67.8438 666.531 66.2812V7.40625C666.531 5.84375 667.094 4.5 668.219 3.375C669.344 2.25 670.688 1.6875 672.25 1.6875H672.812C674.375 1.6875 675.719 2.25 676.844 3.375C677.969 4.5 678.531 5.84375 678.531 7.40625V64.7812C678.531 66.3438 679.094 67.6875 680.219 68.8125C681.344 69.9375 682.688 70.5 684.25 70.5H708.25ZM766.375 70.5C766.875 70.5 767.125 70.75 767.125 71.25C767.125 71.75 766.875 72 766.375 72H725.688C724.125 72 722.781 71.4375 721.656 70.3125C720.531 69.1875 719.969 67.8438 719.969 66.2812V7.40625C719.969 5.84375 720.531 4.5 721.656 3.375C722.781 2.25 724.125 1.6875 725.688 1.6875H764.969C765.469 1.6875 765.719 1.9375 765.719 2.4375C765.719 2.9375 765.469 3.1875 764.969 3.1875H737.688C736.125 3.1875 734.781 3.75 733.656 4.875C732.531 6 731.969 7.34375 731.969 8.90625V29.3438C731.969 30.9062 732.531 32.25 733.656 33.375C734.781 34.5 736.125 35.0625 737.688 35.0625H763.188C763.625 35.0625 763.844 35.2812 763.844 35.7188C763.844 36.1562 763.625 36.375 763.188 36.375H737.688C736.125 36.375 734.781 36.9375 733.656 38.0625C732.531 39.1875 731.969 40.5312 731.969 42.0938V64.7812C731.969 66.3438 732.531 67.6875 733.656 68.8125C734.781 69.9375 736.125 70.5 737.688 70.5H766.375Z" fill="white"/>
</svg>

<svg width="768" height="73" fill="none" xmlns="http://www.w3.org/2000/svg"><path d="M57.156 66.281c0 1.563-.562 2.906-1.687 4.031C54.344 71.439 53 72 51.437 72h-.562c-1.563 0-2.906-.563-4.031-1.688-1.125-1.124-1.688-2.468-1.688-4.03V41.437c0-1.563-.562-2.907-1.687-4.032S41 35.72 39.437 35.72H18.064c-1.563 0-2.907.562-4.032 1.687s-1.687 2.469-1.687 4.032V66.28c0 1.563-.563 2.906-1.688 4.031C9.531 71.439 8.187 72 6.625 72h-.563c-1.562 0-2.906-.563-4.03-1.688C.905 69.189.343 67.844.343 66.282V7.405c0-1.562.562-2.906 1.687-4.031C3.156 2.25 4.5 1.687 6.062 1.687h.563c1.563 0 2.906.563 4.031 1.688 1.125 1.125 1.688 2.469 1.688 4.031V28.5c0 1.563.562 2.906 1.687 4.031 1.125 1.125 2.469 1.688 4.031 1.688h21.375c1.563 0 2.907-.563 4.032-1.688s1.687-2.468 1.687-4.031V7.406c0-1.562.563-2.906 1.688-4.031 1.125-1.125 2.468-1.688 4.031-1.688h.563c1.562 0 2.906.563 4.03 1.688 1.126 1.125 1.688 2.469 1.688 4.031v58.875zm64.688-63.75c0-.562.312-.844.937-.844.563 0 .844.282.844.844v41.907c0 9.437-2.125 16.53-6.375 21.28s-10.625 7.126-19.125 7.126c-17 0-25.5-9.313-25.5-27.938v-37.5c0-1.562.563-2.906 1.688-4.031 1.124-1.125 2.468-1.688 4.03-1.688h.563c1.563 0 2.906.563 4.031 1.688 1.126 1.125 1.688 2.469 1.688 4.031V42.75c0 9.438 1.125 16.531 3.375 21.281s5.625 7.125 10.125 7.125c15.813 0 23.719-9.031 23.719-27.094V2.532zm21.75 68.531c0 .626-.282.938-.844.938-.625 0-.938-.313-.938-.938V7.407c0-1.562.563-2.906 1.688-4.031 1.125-1.125 2.469-1.688 4.031-1.688h3.844c1 0 2.031.375 3.094 1.125 1.125.688 1.875 1.5 2.25 2.438l16.219 38.531c.562 1.375 1.468 2.344 2.718 2.907 1.25.5 2.469.624 3.656.374 1.25-.25 2.344-.843 3.282-1.78.937-1 1.406-2.25 1.406-3.75v-39c0-.563.312-.845.938-.845.562 0 .843.282.843.844v63.75c0 1.563-.562 2.906-1.687 4.031-1.125 1.126-2.469 1.688-4.032 1.688h-4.781c-1 0-2.062-.344-3.187-1.031-1.063-.75-1.782-1.594-2.156-2.531l-15.282-36.282c-.562-1.375-1.468-2.312-2.718-2.812-1.25-.563-2.5-.719-3.75-.469-1.188.25-2.25.875-3.188 1.875-.938.938-1.406 2.156-1.406 3.656v36.657zm93.281-36.093c-.5 0-.75-.25-.75-.75s.25-.75.75-.75h16.875c1.562 0 2.906.562 4.031 1.687 1.125 1.125 1.688 2.469 1.688 4.032V59.53c0 .625-.281 1.469-.844 2.532-.5 1-1 1.687-1.5 2.062-3.5 2.688-7.125 4.813-10.875 6.375-3.688 1.563-7.219 2.344-10.594 2.344-5.562 0-10.625-.844-15.187-2.531-4.563-1.75-8.469-4.188-11.719-7.313-3.188-3.188-5.688-7-7.5-11.438-1.75-4.437-2.625-9.343-2.625-14.718s.875-10.282 2.625-14.719c1.812-4.438 4.312-8.219 7.5-11.344 3.25-3.187 7.156-5.625 11.719-7.312 4.562-1.75 9.625-2.625 15.187-2.625 1.688 0 3.438.406 5.25 1.219 1.875.75 3.688 1.812 5.438 3.187 1.812 1.375 3.562 3.063 5.25 5.063 1.75 2 3.344 4.187 4.781 6.562.063.125.125.313.187.563.063.25.063.406 0 .468l-.374.282-.376.28c-.124.063-.281.032-.468-.093-.188-.125-.313-.25-.375-.375-1.375-2.375-2.875-4.5-4.5-6.375-1.625-1.938-3.281-3.594-4.969-4.969-1.688-1.375-3.375-2.437-5.062-3.187-1.688-.75-3.282-1.125-4.782-1.125-3.625 0-6.937.844-9.937 2.531-2.938 1.625-5.469 3.938-7.594 6.938-2.125 3-3.781 6.624-4.969 10.874-1.125 4.25-1.687 8.97-1.687 14.157 0 5.187.562 9.906 1.687 14.156 1.188 4.25 2.844 7.875 4.969 10.875 2.125 3 4.656 5.344 7.594 7.031 3 1.625 6.312 2.438 9.937 2.438 3.063 0 6.313-.719 9.75-2.156 3.438-1.5 6.813-3.5 10.125-6 .5-.438.969-1.126 1.407-2.063.5-1 .75-1.813.75-2.438v-18c0-1.562-.563-2.906-1.688-4.03-1.125-1.126-2.469-1.688-4.031-1.688h-15.094zM319 67.312c.188.313.344.626.469.938.187.25.343.531.469.844l.562.937.562.938c.126.25.126.5 0 .75-.124.187-.312.281-.562.281h-9.281c-.813 0-1.75-.313-2.813-.938-1.062-.624-1.812-1.28-2.25-1.968l-12.937-22.969c-.813-1.438-.844-2.781-.094-4.031.75-1.313 1.969-1.969 3.656-1.969h3.469c.812 0 1.75.313 2.812.938 1.063.624 1.813 1.28 2.25 1.968L319 67.313zm-35.156-1.03c0 1.562-.563 2.906-1.688 4.03-1.125 1.126-2.468 1.688-4.031 1.688h-.563c-1.562 0-2.906-.563-4.031-1.688-1.125-1.124-1.687-2.468-1.687-4.03V7.405c0-1.562.562-2.906 1.687-4.031 1.125-1.125 2.469-1.688 4.031-1.688h16.688c16.438 0 24.656 7.032 24.656 21.094 0 11.438-8.218 17.157-24.656 17.157h-5.156c-1.5 0-2.75.5-3.75 1.5s-1.5 2.218-1.5 3.656V66.28zm0-33c0 1.437.5 2.687 1.5 3.75 1.062 1 2.312 1.5 3.75 1.5h5.25c8.375 0 12.562-5.25 12.562-15.75 0-13.126-4.25-19.688-12.75-19.688H289c-1.438 0-2.656.5-3.656 1.5s-1.5 2.218-1.5 3.656v25.031zm51.844-31.594c.312 0 .624.125.937.375.375.187.625.406.75.656l.75 1.312c.25.438.469.844.656 1.219.25.438.469.844.657 1.219L355.75 36c.25.438.656.656 1.219.656.5-.062.875-.312 1.125-.75l16.781-30.75c.25-.437.594-1.093 1.031-1.968.5-.876.782-1.376.844-1.5.125-.188.25-.22.375-.094.125.062.313.093.563.093.562 0 .687.25.374.75l-18.374 33.47c-.126.187-.282.656-.469 1.406-.188.75-.281 1.218-.281 1.406V66.28c0 1.563-.563 2.906-1.688 4.031-1.125 1.126-2.469 1.688-4.031 1.688h-.563c-1.562 0-2.906-.563-4.031-1.688-1.125-1.124-1.687-2.468-1.687-4.03v-23.72c0-.187-.094-.656-.282-1.406-.187-.75-.344-1.218-.468-1.406l-18.75-33.375-.376-.75c-.187-.25-.374-.531-.562-.844a6.509 6.509 0 00-.469-.937l-.562-1.125c-.188-.25-.219-.469-.094-.656.125-.25.344-.376.656-.376h9.657zm89.437 64.593c0 1.563-.563 2.906-1.687 4.031-1.126 1.126-2.469 1.688-4.032 1.688h-.562c-1.563 0-2.906-.563-4.032-1.688-1.124-1.124-1.687-2.468-1.687-4.03V7.405c0-1.562.563-2.906 1.687-4.031 1.126-1.125 2.469-1.688 4.032-1.688h16.687c16.438 0 24.657 7.032 24.657 21.094 0 12.688-8.219 19.032-24.657 19.032h-5.156c-1.5 0-2.75.5-3.75 1.5s-1.5 2.218-1.5 3.656V66.28zm0-31.125c0 1.438.5 2.688 1.5 3.75 1.063 1 2.313 1.5 3.75 1.5h5.25c8.375 0 12.563-5.875 12.563-17.625 0-13.125-4.25-19.687-12.75-19.687h-5.157c-1.437 0-2.656.5-3.656 1.5s-1.5 2.218-1.5 3.656v26.906zM518.031 70.5c.5 0 .75.25.75.75s-.25.75-.75.75h-40.687c-1.563 0-2.906-.563-4.032-1.688-1.124-1.124-1.687-2.468-1.687-4.03V7.405c0-1.562.563-2.906 1.687-4.031 1.126-1.125 2.469-1.688 4.032-1.688h39.281c.5 0 .75.25.75.75s-.25.75-.75.75h-27.281c-1.563 0-2.906.563-4.032 1.688-1.124 1.125-1.687 2.469-1.687 4.031v20.438c0 1.562.563 2.906 1.687 4.031 1.126 1.125 2.469 1.688 4.032 1.688h25.5c.437 0 .656.218.656.656 0 .437-.219.656-.656.656h-25.5c-1.563 0-2.906.563-4.032 1.688-1.124 1.124-1.687 2.468-1.687 4.03V64.78c0 1.563.563 2.906 1.687 4.031 1.126 1.126 2.469 1.688 4.032 1.688h28.687zm23.625-33.656c0 5.187.469 9.906 1.406 14.156 1 4.25 2.376 7.875 4.126 10.875 1.75 3 3.843 5.344 6.281 7.031 2.5 1.625 5.25 2.438 8.25 2.438s5.719-.813 8.156-2.438c2.5-1.687 4.625-4.031 6.375-7.031s3.094-6.625 4.031-10.875c1-4.25 1.5-8.969 1.5-14.156 0-4.938-.531-9.5-1.593-13.688-1-4.187-2.407-7.812-4.219-10.875-1.75-3.125-3.844-5.562-6.281-7.312-2.438-1.75-5.094-2.625-7.969-2.625s-5.531.875-7.969 2.625c-2.438 1.75-4.562 4.187-6.375 7.312-1.75 3.063-3.156 6.688-4.219 10.875-1 4.188-1.5 8.75-1.5 13.688zm-12.844 0c0-5.125.813-9.875 2.438-14.25 1.688-4.438 4-8.25 6.938-11.438 3-3.25 6.5-5.781 10.5-7.594 4-1.812 8.343-2.718 13.031-2.718 4.687 0 9.031.906 13.031 2.719 4 1.812 7.469 4.343 10.406 7.593 3 3.188 5.313 7 6.938 11.438 1.687 4.375 2.531 9.125 2.531 14.25 0 5.375-.781 10.281-2.344 14.718C590.719 56 588.5 59.813 585.625 63c-2.875 3.125-6.344 5.563-10.406 7.313-4.063 1.687-8.563 2.53-13.5 2.53-4.938 0-9.438-.843-13.5-2.53-4.063-1.75-7.531-4.188-10.407-7.313-2.874-3.188-5.093-7-6.656-11.438-1.562-4.437-2.344-9.343-2.344-14.718zm91.126 29.437c0 1.563-.563 2.906-1.688 4.031-1.125 1.126-2.469 1.688-4.031 1.688h-.563c-1.562 0-2.906-.563-4.031-1.688-1.125-1.124-1.687-2.468-1.687-4.03V7.405c0-1.562.562-2.906 1.687-4.031 1.125-1.125 2.469-1.688 4.031-1.688h16.688C646.781 1.688 655 8.72 655 22.782c0 12.688-8.219 19.032-24.656 19.032h-5.156c-1.5 0-2.75.5-3.75 1.5s-1.5 2.218-1.5 3.656v19.31zm0-31.125c0 1.438.5 2.688 1.5 3.75 1.062 1 2.312 1.5 3.75 1.5h5.25c8.374 0 12.562-5.875 12.562-17.625 0-13.125-4.25-19.687-12.75-19.687h-5.156c-1.438 0-2.656.5-3.656 1.5s-1.5 2.218-1.5 3.656v26.906zM708.25 70.5c.5 0 .75.25.75.75s-.25.75-.75.75h-36c-1.562 0-2.906-.563-4.031-1.688-1.125-1.124-1.688-2.468-1.688-4.03V7.405c0-1.562.563-2.906 1.688-4.031 1.125-1.125 2.469-1.688 4.031-1.688h.562c1.563 0 2.907.563 4.032 1.688s1.687 2.469 1.687 4.031V64.78c0 1.563.563 2.906 1.688 4.031 1.125 1.126 2.469 1.688 4.031 1.688h24zm58.125 0c.5 0 .75.25.75.75s-.25.75-.75.75h-40.687c-1.563 0-2.907-.563-4.032-1.688-1.125-1.124-1.687-2.468-1.687-4.03V7.405c0-1.562.562-2.906 1.687-4.031 1.125-1.125 2.469-1.688 4.032-1.688h39.281c.5 0 .75.25.75.75s-.25.75-.75.75h-27.281c-1.563 0-2.907.563-4.032 1.688s-1.687 2.469-1.687 4.031v20.438c0 1.562.562 2.906 1.687 4.031 1.125 1.125 2.469 1.688 4.032 1.688h25.5c.437 0 .656.218.656.656 0 .437-.219.656-.656.656h-25.5c-1.563 0-2.907.563-4.032 1.688-1.125 1.124-1.687 2.468-1.687 4.03V64.78c0 1.563.562 2.906 1.687 4.031 1.125 1.126 2.469 1.688 4.032 1.688h28.687z" fill="#fff"/></svg>
